images/strategy.svg

<svg fill="none" height="109" viewBox="0 0 477 109" width="477" xmlns="http://www.w3.org/2000/svg"><path d="m18.8799 82.8667c-4.48 0-8.3378-.4978-11.5733-1.4934-3.15258-.9126-6.13923-1.9496-8.95996-3.1111v-16.3021c1.742216 1.1615 3.69184 2.3644 5.84887 3.6089 2.15702 1.1614 4.52146 2.1155 7.09329 2.8622 2.6548.7466 5.4341 1.12 8.3378 1.12 2.9866 0 5.0607-.4978 6.2222-1.4934 1.2444-1.0785 1.8666-2.3644 1.8666-3.8577 0-1.4104-.6222-2.5304-1.8666-3.36-1.2445-.9126-2.8623-1.6593-4.8534-2.24s-4.1066-1.12-6.3466-1.6178c-1.9911-.4148-3.9822-1.037-5.97331-1.8666-1.99111-.9126-3.7748-2.1156-5.35109-3.6089s-2.862212-3.3185-3.857764-5.4755c-.912586-2.24-1.368886-4.9363-1.368886-8.0889 0-4.0652.78815-7.4252 2.364438-10.08 1.576292-2.7377 3.650352-4.9362 6.222192-6.5955 2.57185-1.6592 5.35112-2.8207 8.33772-3.4844 2.9867-.7467 5.8904-1.0785 8.7111-.9956 5.1437.166 9.2089.7467 12.1955 1.7422 3.0696.9126 5.8489 2.1156 8.3378 3.6089v14.56c-2.8208-1.5763-5.6415-3.0282-8.4622-4.3556-2.7378-1.4103-5.8904-2.1155-9.4578-2.1155-3.2355 0-5.5585.4977-6.9688 1.4933-1.4104.9956-2.1156 2.323-2.1156 3.9822 0 1.5763.4563 2.8207 1.3689 3.7333.9956.9126 2.2815 1.6593 3.8578 2.24 1.5763.4978 3.3185.9956 5.2266 1.4933 2.0741.4978 4.1896 1.12 6.3467 1.8667 2.2399.6637 4.314 1.6593 6.2221 2.9867 1.9912 1.2444 3.5674 3.0281 4.7289 5.351 1.2445 2.24 1.8667 5.2267 1.8667 8.96-.083 5.0607-1.4519 9.1259-4.1067 12.1955-2.6548 2.9867-6.0977 5.1437-10.3288 6.4711-4.1482 1.2444-8.6696 1.8667-13.5644 1.8667zm64.6389.6222c-7.3007 0-12.7348-1.7008-16.3022-5.1022-3.5674-3.4845-5.3511-8.3792-5.3511-14.6844v-31.4843h-9.2088v-14.1866h9.2088v-17.297741h19.4133v17.297741h13.8133v14.1866h-13.8133v29.1199c0 2.157.4563 3.7748 1.3689 4.8533.9126.9955 2.4474 1.4933 4.6044 1.4933 1.2444 0 2.6133-.2489 4.1067-.7467 1.4933-.4977 2.7377-1.12 3.7333-1.8666v15.9288c-1.7422.9126-3.6504 1.5348-5.7244 1.8667-1.9912.4148-3.9408.6222-5.8489.6222zm23.1572-2.4889v-56.3731c1.162-.9956 3.236-2.1156 6.222-3.36 2.987-1.3274 6.388-2.4889 10.205-3.4844 3.899-1.0785 7.798-1.6178 11.697-1.6178 3.9 0 6.969.2904 9.209.8711 2.24.5808 3.941 1.3274 5.102 2.24v13.5644c-1.41-.3319-3.194-.5807-5.351-.7467-2.157-.1659-4.397-.2489-6.72-.2489-2.323-.0829-4.521-.0829-6.595 0-2.074.083-3.816.2489-5.227.4978v48.6576zm75.007 1.8667c-3.817 0-7.425-.3734-10.827-1.12-3.318-.6637-6.264-1.7837-8.835-3.36-2.489-1.6593-4.439-3.8578-5.849-6.5956-1.411-2.8207-2.116-6.3051-2.116-10.4532 0-3.8993.788-7.3008 2.365-10.2044 1.659-2.9037 4.148-5.1437 7.466-6.72 3.319-1.5763 7.508-2.3645 12.569-2.3645 2.821 0 5.559.2904 8.213.8712 2.655.5807 5.02 1.3688 7.094 2.3644 2.157.9955 3.857 2.0741 5.102 3.2355l.747 8.96c-1.66-.9956-3.651-1.7837-5.974-2.3644-2.323-.5808-4.812-.8711-7.466-.8711-4.066 0-7.052.6222-8.96 1.8666-1.826 1.1615-2.738 3.0281-2.738 5.6 0 1.5763.456 2.9866 1.369 4.2311.912 1.2444 2.115 2.1985 3.609 2.8622 1.576.6637 3.194.9955 4.853.9955 4.231 0 7.176-.2903 8.835-.8711 1.743-.5807 2.614-1.7422 2.614-3.4844v-23.1466c0-3.8162-1.245-6.554-3.734-8.2133-2.405-1.7422-5.848-2.6133-10.328-2.6133-3.651 0-7.343.6637-11.076 1.9911-3.65 1.2445-6.637 2.7793-8.96 4.6044v-16.4266c2.157-1.3274 5.476-2.5718 9.956-3.7333 4.563-1.1615 9.665-1.7422 15.306-1.7422 1.991 0 4.19.1659 6.596.4978 2.406.3318 4.812.9541 7.218 1.8666 2.405.8297 4.604 2.0741 6.595 3.7334 2.074 1.6592 3.733 3.7748 4.978 6.3466 1.244 2.5718 1.866 5.7659 1.866 9.5822l-.124 29.7421c0 3.5674-1.203 6.4711-3.609 8.7111-2.406 2.157-5.89 3.7333-10.453 4.7288-4.48.9956-9.914 1.4934-16.302 1.4934zm70.219.6222c-7.301 0-12.735-1.7008-16.302-5.1022-3.567-3.4845-5.351-8.3792-5.351-14.6844v-31.4843h-9.209v-14.1866h9.209v-17.297741h19.413v17.297741h13.813v14.1866h-13.813v29.1199c0 2.157.456 3.7748 1.369 4.8533.913.9955 2.447 1.4933 4.604 1.4933 1.245 0 2.614-.2489 4.107-.7467 1.493-.4977 2.738-1.12 3.733-1.8666v15.9288c-1.742.9126-3.65 1.5348-5.724 1.8667-1.991.4148-3.941.6222-5.849.6222zm51.655-.6222c-6.305 0-11.905-1.286-16.8-3.8578-4.812-2.6548-8.587-6.3881-11.324-11.2-2.655-4.8948-3.983-10.7021-3.983-17.4221 0-10.9511 2.697-19.4133 8.089-25.3866 5.476-6.0562 13.274-9.0844 23.396-9.0844 6.969 0 12.569 1.4934 16.8 4.48 4.314 2.9867 7.466 7.3422 9.457 13.0666 1.992 5.7244 2.946 12.6933 2.863 20.9066h-47.911l-1.991-11.8222h34.595l-2.738 5.8489c-.083-6.72-1.037-11.4489-2.862-14.1866-1.825-2.7378-4.812-4.1067-8.96-4.1067-2.323 0-4.438.5808-6.346 1.7422-1.826 1.1615-3.278 3.1111-4.356 5.8489-.996 2.6548-1.493 6.3467-1.493 11.0755 0 5.9733 1.41 10.5778 4.231 13.8133 2.903 3.2355 7.508 4.8533 13.813 4.8533 2.323 0 4.604-.2489 6.844-.7467 2.323-.5807 4.48-1.2444 6.472-1.9911 1.991-.7466 3.691-1.4103 5.102-1.9911v15.9289c-2.987 1.2444-6.347 2.24-10.08 2.9866-3.651.8296-7.923 1.2445-12.818 1.2445zm63.034 0c-5.725-.3319-10.661-1.6593-14.809-3.9822-4.065-2.323-7.259-5.7245-9.582-10.2045-2.24-4.5629-3.36-10.2873-3.36-17.1732 0-6.9689.871-12.7348 2.613-17.2977 1.742-4.6459 4.148-8.2548 7.218-10.8266 3.152-2.5719 6.927-4.3971 11.324-5.4756s9.292-1.6177 14.685-1.6177c5.226 0 9.789.6637 13.688 1.9911 3.9 1.3274 6.928 3.2355 9.085 5.7244s3.235 5.5585 3.235 9.2088v48.5332c0 4.397-.705 8.2547-2.115 11.5733-1.41 3.4014-3.526 6.2221-6.347 8.462-2.738 2.323-6.097 4.065-10.08 5.227-3.899 1.161-8.42 1.742-13.564 1.742-5.559 0-10.329-.415-14.311-1.244-3.899-.747-6.886-1.701-8.96-2.863v-16.3018c1.244.4978 3.07 1.1615 5.475 1.9911 2.406.8296 5.103 1.4933 8.089 1.9911 2.987.5807 5.974.8711 8.96.8711 3.899 0 6.886-.5393 8.96-1.6178 2.157-1.0785 3.651-2.5303 4.48-4.3555.83-1.8252 1.245-3.8992 1.245-6.2222v-10.2044l3.609 2.6133c-1.328 1.9082-2.904 3.5674-4.729 4.9778-1.826 1.4103-3.983 2.4889-6.471 3.2355-2.406.8296-5.186 1.2445-8.338 1.2445zm4.729-13.9378c2.157 0 4.148-.2074 5.973-.6222 1.825-.4978 3.567-1.2029 5.227-2.1155v-28.871c0-1.7422-.498-3.0696-1.494-3.9822-.995-.9126-2.24-1.5348-3.733-1.8667-1.493-.3318-3.07-.4978-4.729-.4978-3.816 0-6.844.8297-9.084 2.4889-2.157 1.6593-3.734 3.9822-4.729 6.9689-.913 2.9037-1.369 6.2222-1.369 9.9555 0 5.7244 1.286 10.2459 3.858 13.5644s5.932 4.9777 10.08 4.9777zm56.096 36.4621c-2.074 0-4.107-.207-6.098-.622s-3.692-.954-5.102-1.618v-15.0577c1.327.4978 2.572.8296 3.733.9956 1.162.2488 2.364.3733 3.609.3733 2.074 0 3.858-.4978 5.351-1.4933 1.576-.9126 2.862-2.5304 3.858-4.8534.995-2.2399 1.783-5.3096 2.364-9.2088l.374 10.5777-27.005-66.453h21.28l14.311 44.1776h-1.866l14.186-44.1776h19.911l-24.764 63.9642c-2.24 5.8073-4.688 10.4118-7.342 13.8132-2.572 3.4015-5.269 5.8492-8.089 7.3422-2.821 1.493-5.725 2.24-8.711 2.24z" fill="#000" opacity=".04"/></svg>

<svg width="477" height="109" viewBox="0 0 477 109" fill="none" xmlns="http://www.w3.org/2000/svg">
<path opacity="0.04" d="M18.8799 82.8667C14.3999 82.8667 10.5421 82.3689 7.3066 81.3733C4.15402 80.4607 1.16737 79.4237 -1.65336 78.2622V61.9601C0.088856 63.1216 2.03848 64.3245 4.19551 65.569C6.35253 66.7304 8.71697 67.6845 11.2888 68.4312C13.9436 69.1778 16.7229 69.5512 19.6266 69.5512C22.6132 69.5512 24.6873 69.0534 25.8488 68.0578C27.0932 66.9793 27.7154 65.6934 27.7154 64.2001C27.7154 62.7897 27.0932 61.6697 25.8488 60.8401C24.6043 59.9275 22.9865 59.1808 20.9954 58.6001C19.0043 58.0194 16.8888 57.4801 14.6488 56.9823C12.6577 56.5675 10.6666 55.9453 8.67549 55.1157C6.68438 54.2031 4.90069 53.0001 3.3244 51.5068C1.74811 50.0135 0.462188 48.1883 -0.533364 46.0313C-1.44595 43.7913 -1.90225 41.095 -1.90225 37.9424C-1.90225 33.8772 -1.1141 30.5172 0.462188 27.8624C2.03848 25.1247 4.11254 22.9262 6.68438 21.2669C9.25623 19.6077 12.0355 18.4462 15.0221 17.7825C18.0088 17.0358 20.9125 16.704 23.7332 16.7869C28.8769 16.9529 32.9421 17.5336 35.9287 18.5291C38.9983 19.4417 41.7776 20.6447 44.2665 22.138V36.698C41.4457 35.1217 38.625 33.6698 35.8043 32.3424C33.0665 30.9321 29.9139 30.2269 26.3465 30.2269C23.111 30.2269 20.788 30.7246 19.3777 31.7202C17.9673 32.7158 17.2621 34.0432 17.2621 35.7024C17.2621 37.2787 17.7184 38.5231 18.631 39.4357C19.6266 40.3483 20.9125 41.095 22.4888 41.6757C24.0651 42.1735 25.8073 42.6713 27.7154 43.169C29.7895 43.6668 31.905 44.289 34.0621 45.0357C36.302 45.6994 38.3761 46.695 40.2842 48.0224C42.2754 49.2668 43.8516 51.0505 45.0131 53.3734C46.2576 55.6134 46.8798 58.6001 46.8798 62.3334C46.7968 67.3941 45.4279 71.4593 42.7731 74.5289C40.1183 77.5156 36.6754 79.6726 32.4443 81C28.2961 82.2444 23.7747 82.8667 18.8799 82.8667ZM83.5188 83.4889C76.2181 83.4889 70.784 81.7881 67.2166 78.3867C63.6492 74.9022 61.8655 70.0075 61.8655 63.7023V32.218H52.6567V18.0314H61.8655V0.733659H81.2788V18.0314H95.0921V32.218H81.2788V61.3379C81.2788 63.4949 81.7351 65.1127 82.6477 66.1912C83.5603 67.1867 85.0951 67.6845 87.2521 67.6845C88.4965 67.6845 89.8654 67.4356 91.3588 66.9378C92.8521 66.4401 94.0965 65.8178 95.0921 65.0712V81C93.3499 81.9126 91.4417 82.5348 89.3677 82.8667C87.3765 83.2815 85.4269 83.4889 83.5188 83.4889ZM106.676 81V24.6269C107.838 23.6313 109.912 22.5113 112.898 21.2669C115.885 19.9395 119.286 18.778 123.103 17.7825C127.002 16.704 130.901 16.1647 134.8 16.1647C138.7 16.1647 141.769 16.4551 144.009 17.0358C146.249 17.6166 147.95 18.3632 149.111 19.2758V32.8402C147.701 32.5083 145.917 32.2595 143.76 32.0935C141.603 31.9276 139.363 31.8446 137.04 31.8446C134.717 31.7617 132.519 31.7617 130.445 31.8446C128.371 31.9276 126.629 32.0935 125.218 32.3424V81H106.676ZM181.683 82.8667C177.866 82.8667 174.258 82.4933 170.856 81.7467C167.538 81.083 164.592 79.963 162.021 78.3867C159.532 76.7274 157.582 74.5289 156.172 71.7911C154.761 68.9704 154.056 65.486 154.056 61.3379C154.056 57.4386 154.844 54.0371 156.421 51.1335C158.08 48.2298 160.569 45.9898 163.887 44.4135C167.206 42.8372 171.395 42.049 176.456 42.049C179.277 42.049 182.015 42.3394 184.669 42.9202C187.324 43.5009 189.689 44.289 191.763 45.2846C193.92 46.2801 195.62 47.3587 196.865 48.5201L197.612 57.4801C195.952 56.4845 193.961 55.6964 191.638 55.1157C189.315 54.5349 186.826 54.2446 184.172 54.2446C180.106 54.2446 177.12 54.8668 175.212 56.1112C173.386 57.2727 172.474 59.1393 172.474 61.7112C172.474 63.2875 172.93 64.6978 173.843 65.9423C174.755 67.1867 175.958 68.1408 177.452 68.8045C179.028 69.4682 180.646 69.8 182.305 69.8C186.536 69.8 189.481 69.5097 191.14 68.9289C192.883 68.3482 193.754 67.1867 193.754 65.4445V42.2979C193.754 38.4817 192.509 35.7439 190.02 34.0846C187.615 32.3424 184.172 31.4713 179.692 31.4713C176.041 31.4713 172.349 32.135 168.616 33.4624C164.966 34.7069 161.979 36.2417 159.656 38.0668V21.6402C161.813 20.3128 165.132 19.0684 169.612 17.9069C174.175 16.7454 179.277 16.1647 184.918 16.1647C186.909 16.1647 189.108 16.3306 191.514 16.6625C193.92 16.9943 196.326 17.6166 198.732 18.5291C201.137 19.3588 203.336 20.6032 205.327 22.2625C207.401 23.9217 209.06 26.0373 210.305 28.6091C211.549 31.1809 212.171 34.375 212.171 38.1913L212.047 67.9334C212.047 71.5008 210.844 74.4045 208.438 76.6445C206.032 78.8015 202.548 80.3778 197.985 81.3733C193.505 82.3689 188.071 82.8667 181.683 82.8667ZM251.902 83.4889C244.601 83.4889 239.167 81.7881 235.6 78.3867C232.033 74.9022 230.249 70.0075 230.249 63.7023V32.218H221.04V18.0314H230.249V0.733659H249.662V18.0314H263.475V32.218H249.662V61.3379C249.662 63.4949 250.118 65.1127 251.031 66.1912C251.944 67.1867 253.478 67.6845 255.635 67.6845C256.88 67.6845 258.249 67.4356 259.742 66.9378C261.235 66.4401 262.48 65.8178 263.475 65.0712V81C261.733 81.9126 259.825 82.5348 257.751 82.8667C255.76 83.2815 253.81 83.4889 251.902 83.4889ZM303.557 82.8667C297.252 82.8667 291.652 81.5807 286.757 79.0089C281.945 76.3541 278.17 72.6208 275.433 67.8089C272.778 62.9141 271.45 57.1068 271.45 50.3868C271.45 39.4357 274.147 30.9735 279.539 25.0002C285.015 18.944 292.813 15.9158 302.935 15.9158C309.904 15.9158 315.504 17.4092 319.735 20.3958C324.049 23.3825 327.201 27.738 329.192 33.4624C331.184 39.1868 332.138 46.1557 332.055 54.369H284.144L282.153 42.5468H316.748L314.01 48.3957C313.927 41.6757 312.973 36.9468 311.148 34.2091C309.323 31.4713 306.336 30.1024 302.188 30.1024C299.865 30.1024 297.75 30.6832 295.842 31.8446C294.016 33.0061 292.564 34.9557 291.486 37.6935C290.49 40.3483 289.993 44.0402 289.993 48.769C289.993 54.7423 291.403 59.3468 294.224 62.5823C297.127 65.8178 301.732 67.4356 308.037 67.4356C310.36 67.4356 312.641 67.1867 314.881 66.6889C317.204 66.1082 319.361 65.4445 321.353 64.6978C323.344 63.9512 325.044 63.2875 326.455 62.7067V78.6356C323.468 79.88 320.108 80.8756 316.375 81.6222C312.724 82.4518 308.452 82.8667 303.557 82.8667ZM366.591 82.8667C360.866 82.5348 355.93 81.2074 351.782 78.8845C347.717 76.5615 344.523 73.16 342.2 68.68C339.96 64.1171 338.84 58.3927 338.84 51.5068C338.84 44.5379 339.711 38.772 341.453 34.2091C343.195 29.5632 345.601 25.9543 348.671 23.3825C351.823 20.8106 355.598 18.9854 359.995 17.9069C364.392 16.8284 369.287 16.2892 374.68 16.2892C379.906 16.2892 384.469 16.9529 388.368 18.2803C392.268 19.6077 395.296 21.5158 397.453 24.0047C399.61 26.4936 400.688 29.5632 400.688 33.2135V81.7467C400.688 86.1437 399.983 90.0014 398.573 93.32C397.163 96.7214 395.047 99.5421 392.226 101.782C389.488 104.105 386.129 105.847 382.146 107.009C378.247 108.17 373.726 108.751 368.582 108.751C363.023 108.751 358.253 108.336 354.271 107.507C350.372 106.76 347.385 105.806 345.311 104.644V88.3422C346.555 88.84 348.381 89.5037 350.786 90.3333C353.192 91.1629 355.889 91.8266 358.875 92.3244C361.862 92.9051 364.849 93.1955 367.835 93.1955C371.734 93.1955 374.721 92.6562 376.795 91.5777C378.952 90.4992 380.446 89.0474 381.275 87.2222C382.105 85.397 382.52 83.323 382.52 81V70.7956L386.129 73.4089C384.801 75.3171 383.225 76.9763 381.4 78.3867C379.574 79.797 377.417 80.8756 374.929 81.6222C372.523 82.4518 369.743 82.8667 366.591 82.8667ZM371.32 68.9289C373.477 68.9289 375.468 68.7215 377.293 68.3067C379.118 67.8089 380.86 67.1038 382.52 66.1912V37.3202C382.52 35.578 382.022 34.2506 381.026 33.338C380.031 32.4254 378.786 31.8032 377.293 31.4713C375.8 31.1395 374.223 30.9735 372.564 30.9735C368.748 30.9735 365.72 31.8032 363.48 33.4624C361.323 35.1217 359.746 37.4446 358.751 40.4313C357.838 43.335 357.382 46.6535 357.382 50.3868C357.382 56.1112 358.668 60.6327 361.24 63.9512C363.812 67.2697 367.172 68.9289 371.32 68.9289ZM427.416 105.391C425.342 105.391 423.309 105.184 421.318 104.769C419.327 104.354 417.626 103.815 416.216 103.151V88.0933C417.543 88.5911 418.788 88.9229 419.949 89.0889C421.111 89.3377 422.313 89.4622 423.558 89.4622C425.632 89.4622 427.416 88.9644 428.909 87.9689C430.485 87.0563 431.771 85.4385 432.767 83.1155C433.762 80.8756 434.55 77.8059 435.131 73.9067L435.505 84.4844L408.5 18.0314H429.78L444.091 62.209H442.225L456.411 18.0314H476.322L451.558 81.9956C449.318 87.8029 446.87 92.4074 444.216 95.8088C441.644 99.2103 438.947 101.658 436.127 103.151C433.306 104.644 430.402 105.391 427.416 105.391Z" fill="black"/>
</svg>
